X: 297
T: Xiu huadang
%%abc-version 2.0
%%abcx-abcm2ps-target-version 5.9.1 (29 Sep 2008)
%%abc-creator hum2abc beta
%%abcx-conversion-date 2013/10/02 07:52:29
%%abc-edited-by Helmut Schaffrath
%%humdrum-veritas 3633220480
%%humdrum-veritas-data 3165869245
%%continueall 1
%%barnumbers 0
L: 1/8
M: 2/4
K: C
G A,G,2 [I:setbarnb 1]| 
CC3 | 
D2E C | 
D CD2 | 
G, A,G,2 | 
D ED2 | 
A, A, C A, | 
G,4 | 
G, A,G,2 | 
CC3 | 
D2E C | 
D CD2 | 
E DE2 | 
C A,G,2 | 
C C C A, | 
G, A,G,2 | 
G, A,G,2 | 
D G E D | 
C C C E | 
D2D/ C/ A, | 
G,4 |]  



